X:1
T:Gymnopédie n.1
C:Erik Satie
Q:1/4=60
M:3/4
K:D
L:1/4
V:1 score=_B
%%MIDI program 57
z4 | z4 | z4 | z4 | z (F A | G F C | B, C D | A,3 | F,3)- | F,3- | F,3- | F,3 |
z F A | G F C | B, C D | A,3 | C3 | F3 | E,3- | E,3- | E,3 |
A, B, =C | E D B, | D =C B, | D3- | D2 D | E =F G | A =C D | E D B, | D3 |]
